public/static/home2/avatar.svg

<svg width="36" height="36" viewBox="0 0 36 36" fill="none" xmlns="http://www.w3.org/2000/svg">
<circle cx="18" cy="18" r="18" fill="white" fill-opacity="0.1"/>
<path fill-rule="evenodd" clip-rule="evenodd" d="M22.0893 24.8637C20.7154 25.8645 19.0508 26.4134 17.3297 26.4134C15.1858 26.4134 13.1297 25.5617 11.6137 24.0457C10.0978 22.5298 9.24609 20.4737 9.24609 18.3297C9.24609 16.1858 10.0978 14.1297 11.6137 12.6137C13.1297 11.0978 15.1858 10.2461 17.3297 10.2461C19.4737 10.2461 21.5298 11.0978 23.0457 12.6137C24.5617 14.1297 25.4134 16.1858 25.4134 18.3297C25.4134 20.4019 24.6177 22.3921 23.1956 23.8918L26.0036 26.6998C26.0097 26.7057 26.0157 26.7117 26.0217 26.7179C26.0919 26.7857 26.1478 26.8667 26.1864 26.9564C26.2249 27.0461 26.2451 27.1425 26.246 27.2401C26.2468 27.3376 26.2282 27.4344 26.1913 27.5247C26.1543 27.615 26.0998 27.6971 26.0308 27.7661C25.9618 27.8351 25.8797 27.8897 25.7894 27.9266C25.6991 27.9636 25.6023 27.9821 25.5048 27.9813C25.4072 27.9805 25.3107 27.9602 25.2211 27.9217C25.1314 27.8832 25.0503 27.8272 24.9826 27.757C24.9764 27.7511 24.9704 27.745 24.9645 27.7389L22.0893 24.8637ZM12.653 23.0065C13.8934 24.2468 15.5756 24.9436 17.3297 24.9436C19.0839 24.9436 20.7661 24.2468 22.0065 23.0065C23.2468 21.7661 23.9436 20.0839 23.9436 18.3297C23.9436 16.5756 23.2468 14.8934 22.0065 13.653C20.7661 12.4127 19.0839 11.7158 17.3297 11.7158C15.5756 11.7158 13.8934 12.4127 12.653 13.653C11.4127 14.8934 10.7158 16.5756 10.7158 18.3297C10.7158 20.0839 11.4127 21.7661 12.653 23.0065Z" fill="white"/>
<g clip-path="url(#clip0_553_12888)">
<path d="M0 18C0 22.7739 1.89642 27.3523 5.27208 30.7279C8.64773 34.1036 13.2261 36 18 36C22.7739 36 27.3523 34.1036 30.7279 30.7279C34.1036 27.3523 36 22.7739 36 18C36 13.2261 34.1036 8.64773 30.7279 5.27208C27.3523 1.89642 22.7739 0 18 0C13.2261 0 8.64773 1.89642 5.27208 5.27208C1.89642 8.64773 0 13.2261 0 18Z" fill="#CBE0E1"/>
<path d="M18.0005 7.87549C16.443 7.87558 14.9205 8.33751 13.6255 9.20287C12.3305 10.0682 11.3213 11.2981 10.7253 12.7371C10.1293 14.1761 9.97344 15.7594 10.2773 17.287C10.5813 18.8146 11.3313 20.2177 12.4326 21.319C13.534 22.4203 14.9372 23.1702 16.4647 23.474C17.9923 23.7779 19.5757 23.6219 21.0146 23.0258C22.4535 22.4298 23.6834 21.4204 24.5487 20.1254C25.414 18.8304 25.8758 17.3079 25.8758 15.7504V7.87549H18.0005Z" fill="#92B4B6"/>
<path d="M14.0628 17.4376C13.9877 17.4421 13.9125 17.4307 13.8422 17.4041C13.7718 17.3774 13.708 17.3361 13.6548 17.2829C13.6016 17.2297 13.5603 17.1659 13.5336 17.0955C13.507 17.0252 13.4956 16.95 13.5001 16.8749V14.6256C13.5001 14.4764 13.5594 14.3333 13.6649 14.2278C13.7704 14.1223 13.9136 14.063 14.0628 14.063C14.212 14.063 14.3551 14.1223 14.4606 14.2278C14.5661 14.3333 14.6254 14.4764 14.6254 14.6256V16.8758C14.6299 16.9508 14.6183 17.0259 14.5916 17.0961C14.5649 17.1664 14.5236 17.2301 14.4704 17.2832C14.4173 17.3363 14.3534 17.3775 14.2832 17.4041C14.2129 17.4307 14.1378 17.4421 14.0628 17.4376ZM18.3089 17.4376C18.2338 17.4421 18.1586 17.4307 18.0883 17.4041C18.0179 17.3774 17.9541 17.3361 17.9009 17.2829C17.8477 17.2297 17.8064 17.1659 17.7797 17.0955C17.7531 17.0252 17.7417 16.95 17.7462 16.8749V14.6256C17.7462 14.4764 17.8055 14.3333 17.911 14.2278C18.0165 14.1223 18.1597 14.063 18.3089 14.063C18.4581 14.063 18.6012 14.1223 18.7067 14.2278C18.8123 14.3333 18.8715 14.4764 18.8715 14.6256V16.8758C18.876 16.9508 18.8644 17.0259 18.8377 17.0961C18.811 17.1664 18.7697 17.2301 18.7165 17.2832C18.6634 17.3363 18.5995 17.3775 18.5293 17.4041C18.459 17.4307 18.3839 17.4421 18.3089 17.4376Z" fill="black"/>
<path d="M7.29376 32.3789C7.29376 28.0478 10.8565 25.7817 15.1876 25.7817H20.8128C25.144 25.7817 28.6406 28.0887 28.6406 32.4199C28.6406 32.4199 24.7813 36.013 18.0626 35.9998C11.3438 35.9866 7.29376 32.3789 7.29376 32.3789Z" fill="#92B4B6"/>
</g>
<defs>
<clipPath id="clip0_553_12888">
<rect width="36" height="36" fill="white"/>
</clipPath>
</defs>
</svg>

<svg width="36" height="36" viewBox="0 0 36 36" fill="none" xmlns="http://www.w3.org/2000/svg"><circle cx="18" cy="18" r="18" fill="#fff" fill-opacity=".1"/><path fill-rule="evenodd" clip-rule="evenodd" d="M22.09 24.864a8.084 8.084 0 1 1 1.106-.972l2.808 2.808a.736.736 0 1 1-1.04 1.04l-2.875-2.876zm-9.437-1.858a6.614 6.614 0 1 0 9.353-9.353 6.614 6.614 0 0 0-9.353 9.353z" fill="#fff"/><g clip-path="url(#a)"><path d="M0 18a18 18 0 1 0 36 0 18 18 0 0 0-36 0z" fill="#CBE0E1"/><path d="M18 7.875a7.875 7.875 0 1 0 7.876 7.875V7.875H18z" fill="#92B4B6"/><path d="M14.063 17.438a.533.533 0 0 1-.563-.563v-2.25a.563.563 0 0 1 1.125 0v2.25a.53.53 0 0 1-.562.563zm4.246 0a.533.533 0 0 1-.563-.563v-2.25a.563.563 0 0 1 1.126 0v2.25a.53.53 0 0 1-.563.563z" fill="#000"/><path d="M7.294 32.379c0-4.331 3.563-6.597 7.894-6.597h5.625c4.331 0 7.828 2.307 7.828 6.638 0 0-3.86 3.593-10.578 3.58-6.72-.013-10.77-3.621-10.77-3.621z" fill="#92B4B6"/></g><defs><clipPath id="a"><path fill="#fff" d="M0 0h36v36H0z"/></clipPath></defs></svg>
